X:6
T:Scan Tester (Will's No. 5)
C:from the playing of Will Duke
Q:1/4=180
I:abc2nwc
M:4/4
L:1/8
K:G
dc|B2B2A2A2|GABG D2AG|FGAB cBcd|e2d2d2dc|
B2B2A2A2|GABG D2AG|FGAB cAFG|A2G2G2:|
|:ef|g2d2d2ef|g2d2d4|e2e2f3e|e2d2d2ef|
g2d2d2ef|g2d2d4|e2e2f3e|e2d2c2A2|
B2B2A2A2|GABG D2AG|FGAB cAFG|A2G2G2:|

